X: 1101
T: Pitty Coat loose.   a Jig.
%R: jig
B: Niel Gow & Sons "Complete Repository" v.1 p.10 #1
Z: 2021 John Chambers <jc:trillian.mit.edu>
M: 6/8
L: 1/8
K: Gm
% - - - - - - - - - -
% Voice 1 formatted for proofreading.
V: 1 staves=2
A |\
B2G AFD | B2G AFD | F2F F2c | F2F F2A | B2G AFD | B2G AFD | G2G G2d | G2G G2 :| A |
TB>cd cBA | BAG AFD | Tf>gf fcA | Tf>gf fcA | B>cd cBA | BAG AFD | Tg>ag gdB | Tg>ag gdc |
B>cd cBA | BAG AFD | Tf>gf fcA | Tf>gf fcA | Bcd cde | dcB AG^F | G2G G2d | G2G G2 |]
% - - - - - - - - - -
% Voice 2 preserves the book's staff layout.
V: 2 clef=bass middle=d
z | g3 d3 | g3 d2B | A3 f3 | F3 f3 | g3 d3 | g3 d3 | G3 g3 | G3 G2 :| z |
b3 a3 | g3 d3 | f3 f3 | f3 a3 | b3 a3 | g3 d3 | [g3G3][g3G3] | [g3G3][g3G3] |
b3 a3 | g3 d3 | f3 f3 | f3 f3 | g3 a3 | g3 d'3 | [g3G3][g3G3] | [g3G3][g2G2] |]


